X:19
T:Drumin's Strathspey
T:Strathdown
R:strathspey
C:William Marshall
S:1822 Collection p36
N:Called Strathdown in Marshall's 1781 Collection
B:Athole, Kerrs
D:Theresa Morrison
Z:Paul Stewart Cranford (P.S.C.), <http://www.cranfordpub.com>
M:C
L:1/8
Q:244
K:D
F|D/E/F/G/ AF D/D/D B2|A<dA>F GEEF|D/E/F/G/ AF D/D/D B2|A<dA>G FDD:|
||g|f>ed>e d/d/d f2|d>ef>d eEEg|f>ed<e d/d/d f2|B<dA>G FDDg|
f>ed<e d/d/d f2|d<ef>d eEEg|fbef decd|B<dA>G FDD|]
